X:55
T:Hag's Purse
Z: id:dc-jig-45
M:6/8
L:1/8
K:D Mixolydian
A2D FED|A2d cAF|G2E EDE|c2d cAG|!
A2D FED|A2d cAF|GFG cGE|EDD D3:|!
d2e fdd|ged cAF|G2E EDE|c2d cAG|!
d2e fdd|ged cAF|GFG cGE|EDD D3:|!